!!!OTL: Qiongren shui bupan hongjun
!!!ARE: Asia, China, Fujian Yongding
!! II, 582, 1)
!!!SCT: C2003
!!!YEM: Copyright 1995, estate of Helmut Schaffrath.
**kern
*ICvox
*Ivox
*M2/4
*k[]
*C:
{8cc
8cc
8ee
16ee
16dd
=1
8cc
8ee
[4dd
=2
4.dd]
16cc
16a
=3
8cc
8dd
8cc
8g
=4
2a}
=5
{8a
8a
8dd
8dd
=6
8a
16cc
16dd
8cc
8a
=7
8cc
8dd
8cc
8a
=8
8g
8a
[4g
=9
2g]}
==
!!!AGN: Shange
!!!AMT: simple duple
!!!AIN: vox
!!!EED: Helmut Schaffrath
!!!EEV: 1.0
*-
!!!ONB: Tied note syntax fixed by Craig Sapp, 2004/05/03/
